packages/elvis-assets-icons/icons/svg/src/remove_circle-color.svg

<svg width="24" height="24" fill="none" xmlns="http://www.w3.org/2000/svg"><g clip-path="url(#clip0)"><path d="M12 23.999c-6.617 0-12-5.383-12-12s5.383-12 12-12 12 5.383 12 12-5.383 12-12 12zm0-22.5c-5.79 0-10.5 4.71-10.5 10.5s4.71 10.5 10.5 10.5 10.5-4.71 10.5-10.5-4.71-10.5-10.5-10.5z" fill="#29D305"/><path d="M16.5 17.249a.743.743 0 01-.53-.22L12 13.06l-3.97 3.97a.744.744 0 01-1.06 0 .752.752 0 010-1.061l3.97-3.97-3.97-3.97a.743.743 0 01-.22-.53c0-.2.078-.389.22-.53a.743.743 0 01.53-.22c.2 0 .389.078.53.22l3.97 3.97 3.97-3.97a.744.744 0 011.06 0c.142.141.22.33.22.53s-.078.389-.22.53l-3.97 3.97 3.97 3.97a.752.752 0 010 1.061.746.746 0 01-.53.219z" fill="#000"/></g><defs><clipPath id="clip0"><path d="M0 0h24v24H0V0z" fill="#fff"/></clipPath></defs></svg>

<svg width="24" height="24" viewBox="0 0 24 24" fill="none" xmlns="http://www.w3.org/2000/svg">
<g clip-path="url(#clip0)">
<path d="M12 23.999C5.38301 23.999 0 18.616 0 11.999C0 5.382 5.38301 -0.000999451 12 -0.000999451C18.617 -0.000999451 24 5.382 24 11.999C24 18.616 18.617 23.999 12 23.999ZM12 1.499C6.21001 1.499 1.5 6.209 1.5 11.999C1.5 17.789 6.21001 22.499 12 22.499C17.79 22.499 22.5 17.789 22.5 11.999C22.5 6.209 17.79 1.499 12 1.499Z" fill="#29D305"/>
<path d="M16.5 17.249C16.3 17.249 16.111 17.171 15.97 17.029L12 13.06L8.03 17.03C7.888 17.172 7.7 17.25 7.5 17.25C7.3 17.25 7.111 17.172 6.97 17.03C6.678 16.738 6.678 16.262 6.97 15.969L10.94 11.999L6.97 8.029C6.828 7.888 6.75 7.699 6.75 7.499C6.75 7.299 6.828 7.11 6.97 6.969C7.111 6.827 7.3 6.749 7.5 6.749C7.7 6.749 7.889 6.827 8.03 6.969L12 10.939L15.97 6.969C16.112 6.827 16.3 6.749 16.5 6.749C16.7 6.749 16.889 6.827 17.03 6.969C17.172 7.11 17.25 7.299 17.25 7.499C17.25 7.699 17.172 7.888 17.03 8.029L13.06 11.999L17.03 15.969C17.322 16.261 17.322 16.737 17.03 17.03C16.889 17.171 16.7 17.249 16.5 17.249Z" fill="black"/>
</g>
<defs>
<clipPath id="clip0">
<path d="M0 0H24V24H0V0Z" fill="white"/>
</clipPath>
</defs>
</svg>
